src/pos-icons/emoticon-outline.svg

<svg height="24" viewBox="0 0 24 24" width="24" xmlns="http://www.w3.org/2000/svg"><path d="m12 17.5c2.33 0 4.3-1.46 5.11-3.5h-10.22c.8 2.04 2.78 3.5 5.11 3.5m-3.5-6.5a1.5 1.5 0 0 0 1.5-1.5 1.5 1.5 0 0 0 -1.5-1.5 1.5 1.5 0 0 0 -1.5 1.5 1.5 1.5 0 0 0 1.5 1.5m7 0a1.5 1.5 0 0 0 1.5-1.5 1.5 1.5 0 0 0 -1.5-1.5 1.5 1.5 0 0 0 -1.5 1.5 1.5 1.5 0 0 0 1.5 1.5m-3.5 9a8 8 0 0 1 -8-8 8 8 0 0 1 8-8 8 8 0 0 1 8 8 8 8 0 0 1 -8 8m0-18c-5.53 0-10 4.5-10 10a10 10 0 0 0 10 10 10 10 0 0 0 10-10 10 10 0 0 0 -10-10z"/></svg>

<?xml version="1.0" encoding="UTF-8"?><!DOCTYPE svg PUBLIC "-//W3C//DTD SVG 1.1//EN" "http://www.w3.org/Graphics/SVG/1.1/DTD/svg11.dtd"><svg xmlns="http://www.w3.org/2000/svg" xmlns:xlink="http://www.w3.org/1999/xlink" version="1.1" id="mdi-emoticon-outline" width="24" height="24" viewBox="0 0 24 24"><path d="M12,17.5C14.33,17.5 16.3,16.04 17.11,14H6.89C7.69,16.04 9.67,17.5 12,17.5M8.5,11A1.5,1.5 0 0,0 10,9.5A1.5,1.5 0 0,0 8.5,8A1.5,1.5 0 0,0 7,9.5A1.5,1.5 0 0,0 8.5,11M15.5,11A1.5,1.5 0 0,0 17,9.5A1.5,1.5 0 0,0 15.5,8A1.5,1.5 0 0,0 14,9.5A1.5,1.5 0 0,0 15.5,11M12,20A8,8 0 0,1 4,12A8,8 0 0,1 12,4A8,8 0 0,1 20,12A8,8 0 0,1 12,20M12,2C6.47,2 2,6.5 2,12A10,10 0 0,0 12,22A10,10 0 0,0 22,12A10,10 0 0,0 12,2Z" /></svg>
